X:1
T:Kasap Havasi
T:Kasap Havasi
T:Fra Tyrkia
L:1/8
M:2/4
K:C
V:1 treble nm="Piano" snm="Pno."
V:1
 EF E>^D | EF E>^D | EF EF | ^G4 | ^GA G>F | ^GA G>F | ^GA GA | B4 | cB A2 | BA ^G2 | A>^G AB | %11
 A^G FE | D2 E2 | F2 ^G2 | BA ^GF | E2 z2 :: z E ^GA | B2 B2 | B2 B2 | B4 | z B Bc | d2 c2 | %22
 B2 A2 | ^G4 | z E ^GA | B2 ^G2 | A^G FE | D4 | z D EF | ^G2 A2 | BA ^GF | E4 :| %32

